Catalina-light/actions/22/ratio.svg

<svg width="22" height="22" version="1.1" viewBox="0 0 22 22" xmlns="http://www.w3.org/2000/svg">
<defs>
<style id="current-color-scheme" type="text/css">.ColorScheme-Text {
        color:#4d4d4d
      }</style>
</defs>
<path d="m11 3c-4.432 0-8 3.568-8 8s3.568 8 8 8 8-3.568 8-8-3.568-8-8-8zm-3.125 3a1.875 1.875 0 0 1 1.875 1.875 1.875 1.875 0 0 1-1.875 1.875 1.875 1.875 0 0 1-1.875-1.875 1.875 1.875 0 0 1 1.875-1.875zm7.2441 0 0.88086 0.88086-9.1191 9.1191-0.88086-0.88086 9.1191-9.1191zm-0.99414 6.25a1.875 1.875 0 0 1 1.875 1.875 1.875 1.875 0 0 1-1.875 1.875 1.875 1.875 0 0 1-1.875-1.875 1.875 1.875 0 0 1 1.875-1.875z" color="#4d4d4d" fill="currentColor"/>
</svg>

<?xml version="1.0" encoding="UTF-8" standalone="no"?>
<svg
   xmlns:dc="http://purl.org/dc/elements/1.1/"
   xmlns:cc="http://creativecommons.org/ns#"
   xmlns:rdf="http://www.w3.org/1999/02/22-rdf-syntax-ns#"
   xmlns:svg="http://www.w3.org/2000/svg"
   xmlns="http://www.w3.org/2000/svg"
   xmlns:sodipodi="http://sodipodi.sourceforge.net/DTD/sodipodi-0.dtd"
   xmlns:inkscape="http://www.inkscape.org/namespaces/inkscape"
   version="1.1"
   width="22"
   height="22"
   viewBox="0 0 22 22"
   id="svg2"
   inkscape:version="0.91 r13725"
   sodipodi:docname="ratio.svg">
  <metadata
     id="metadata10">
    <rdf:RDF>
      <cc:Work
         rdf:about="">
        <dc:format>image/svg+xml</dc:format>
        <dc:type
           rdf:resource="http://purl.org/dc/dcmitype/StillImage" />
        <dc:title></dc:title>
      </cc:Work>
    </rdf:RDF>
  </metadata>
  <defs
     id="defs8">
    <style
       id="current-color-scheme"
       type="text/css">
      .ColorScheme-Text {
        color:#4d4d4d
      }
      </style>
  </defs>
  <sodipodi:namedview
     pagecolor="#ffffff"
     bordercolor="#666666"
     borderopacity="1"
     objecttolerance="10"
     gridtolerance="10"
     guidetolerance="10"
     inkscape:pageopacity="0"
     inkscape:pageshadow="2"
     inkscape:window-width="640"
     inkscape:window-height="480"
     id="namedview6"
     showgrid="false"
     inkscape:zoom="27.458333"
     inkscape:cx="6.3186646"
     inkscape:cy="12"
     inkscape:current-layer="svg2" />
  <path
     style="color:#4d4d4d;fill:currentColor;fill-opacity:1;stroke:none"
     d="m 11,3 c -4.432,0 -8,3.5679997 -8,8 0,4.432 3.568,8 8,8 4.432,0 8,-3.568 8,-8 C 19,6.5679997 15.432,3 11,3 Z M 7.875,6 A 1.875,1.875 0 0 1 9.75,7.875 1.875,1.875 0 0 1 7.875,9.75 1.875,1.875 0 0 1 6,7.875 1.875,1.875 0 0 1 7.875,6 Z M 15.119141,6 16,6.8808594 6.8808594,16 6,15.119141 15.119141,6 Z M 14.125,12.25 A 1.875,1.875 0 0 1 16,14.125 1.875,1.875 0 0 1 14.125,16 1.875,1.875 0 0 1 12.25,14.125 1.875,1.875 0 0 1 14.125,12.25 Z"
     id="path3201"
     inkscape:connector-curvature="0" />
</svg>
